X:1
T:Credo
T:Missa Quarti Toni
T:Juan Anchieta
%%score [ 1 2 3 4 ]
L:1/8
Q:1/4=148
M:4/4
K:C
V:1 treble nm="Sopraan" snm="Sop."
V:2 treble-8 nm="Alt" snm="A."
V:3 treble-8 nm="Tenor" snm="T."
V:4 bass nm="Bas" snm="Bs."
V:1
 z8 | z8 | z8 | z8 | z8 | z8 | z8 | z8 | z8 | z8 | z8 | z8 | z8 | z8 | z8 | z8 | A6 A2 | A4 A4 | %18
w: ||||||||||||||||vi- si-|bi- li-|
 G8 | A4 G4 | F8 | E8 | E4 G4 | F4 A4 | G4 B4- | B2 A2 A4- | A4 ^G4 | A8 | z4 A4- | A2 A2 A4 | A8 | %31
w: um|o- *|mni-|um|et in-|vi- si-|bi- *||* li-|um.|Et|* in u-|num|
 z4 G4- | G2 G2 G4- | G4 A4- | A2 G2 G4- | G2 ^FE F4 | G8 | z8 | G6 A2 | B4 c4- | c2 BA B4 | c8 | %42
w: Do-|* mi- num|* Ie-|* sum Chri-||stum,||Fi- li-|um De-||i|
 z8 | z4 G4- | G2 FE D4 | F4 E4- | E2 D2 C4 | B,8 | z4 G4- | G4 G4 | G4 G4- | G2 F2 E4 | z4 E4- | %53
w: |u-||ni- ge-|* * ni-|tum,|et|* ex|Pa- tre|* na- tum-|an-|
 E2 F2 G2 A2 | G4 c4- | c2 A2 B4 | E8 | E6 F2 | G4 A4- | A2 ^G^F G4 | A8 | z4 B4 | c6 B2 | A4 G4- | %64
w: |te o-|* * mni-|a|sae- *|* cu-||la.|De-||um de|
 G2 F2 E4 | D8 | C4 E4- | E2 F2 G4 | A4 c4 | B4 G4 | A8 | G8 | G4 E4 | F8 | E4 G4- | G2 F2 E4- | %76
w: |De-|o, Lu-|* * men|de Lu-|* mi-|ne,|De-|um *|ve-|rum de|* * De-|
 E2 D2 C4 | B,8 | A,4 A4 | G4 c4 | B4 A4- | A2 ^G^F G4 | A8 | z4 E4- | E2 E2 E4 | E4 G4- | G4 A4- | %87
w: * * o|ve-|ro, Ve-||||o|ge-|* ni- tum|non fa-||
 A2 G2 G4- | G4 ^F4 | G8 | z4 G4- | G4 G4 | A4 G4 | F4 E4 | D8 | C6 D2 | E6 F2 | G6 A2 | B4 c4- | %99
w: ||ctum,|con-|* sub-|stan- ti-|a- lem|Pa-|||tri: *|per quem|
 c2 BA B4 | c4 A4- | A2 G2 E4 | F8 | E6 D2 | E4 F4- | F2 E2 E4 | D8 | E8- | E8- | E8- | E8 |] %111
w: |* o-|* mni- a|fa-|||* * cta|sunt,|||||
"^Qui propter" G8 | A4 G4 | G2 E2 F2 ED | C4 z2 G2 | A4 F2 G2- | GF E2 D4 | C2 E3 F G2- | %118
w: Qui|* prop-|ter * * * *|* nos|ho- * *||* mi- * *|
 GF E4 DC | D4 D4 | z4 z2 G2 | G4 G4 | A4 G4 | F4 E2 F2- | FE E4 D2 | E8 | z8 | z8 | z8 | G4 G4 | %130
w: |* nes|et|prop- ter|no- stram|sa- lu- *||tem||||de- scen-|
 F4 E2 F2- | FEDC D4 | C4 z4 | c4 B4 | A4 G2 A2- | AGFE F4 | E8- | E8- | E8- | E8 |] %140
w: dit de cae-||lis.|de- scen-|dit de cae||||||
"^Et incarnatus?" z8 | z8 | z8 | z8 | z8 | z8 | z8 | z8 | z8 | z8 | z8 | z8 | z8 | z8 | z8 | z8 | %156
w: ||||||||||||||||
 z8 | z4 G4 | G8 | F4 A4- | A2 G2 G4- | G4 ^F4 | G8- | G8- | G8 |][M:4/4]"^Crucifixus" G4 G4 | A8 | %167
w: |et|ho-|mo fac-||* tus|est.|||Cru- ci-|fi-|
 G8 | G4 G4 | A6 c2- | c2 BA B4 | c4 z4 | z4 G4 | G4 G4 | A4 A4- | A2 c4 BA | G4 G4 | A8 | z8 | %179
w: xus|e- ti-|am pro|* * * no-|bis|sub|Pon- ti-|o Pi-||* lat-|to,||
 z4 B4 | c3 B G2 A2- | A2 GF E4- | E2 C2 D2 E2 | A,2 C3 D E2- | EF G3 A B2- | B2 A4 ^G2 | A8 | %187
w: pas-|* * sus *||* et se- *|* pul- * *||* tus *|est,|
 z4 c4 | c2 c2 c4 | B8 | A8 | A4 G4 | A2 G2 A2 B2- | B2 A4 ^G2 | A4 c4- | c2 B2 A4 | G4 G4 | %197
w: et|re- sur- re-|xit|ter-|ti- a|di- * * *||e, se-||cun- dum|
 F4 E2 F2- | FE E4 D2 | E8 | z8 | z8 | z8 | z8 | z8 | z8 | z8 | z8 | z8 | z8 | z8 | z8 | z8 | z8 | %214
w: Scrip- tu- *||ras,|||||||||||||||
 z8 | G8 | A4 A4 | G4 E4 | F6 E2- | EDCB, A,4 | G,2 G4 F2- | FEDC D4 | C4 z2 G2 | A4 B4 | %224
w: |Et|i- te-|rum ven-|tu- *||* rus *||est cum|glo- ri-|
 c4 z2 G2- | G2 E2 F2 G2- | G2 FE D2 E2- | ED C2 B,4 | A,2 A3 G B2- | BA A4 ^G2 | A4 E4 | E4 D4 | %232
w: a, iu-|* * di- ca-|||re vi- * *||vos et|mor- tu-|
 F2 A4 GF | E8 | G4 G4 | A4 G4- | G4 c4- | c2 B2 A4 | G2 A4 GF | A2 G3 F F2- | FE E4 D2 | E4 G4 | %242
w: os, * * *||cu- ius|re- gni|* non||e- * * *|* rit * *|* * fi- *|nis. Et|
 G2 G4 G2 | G4 G4 | C8 | E8 | E4 E4 | C4 C2 C2- | C2 A,2 A4 | G6 A2- | AGFE F4 | E4 G4- | %252
w: in Spi- ri-|tum San-|ctum,|Do|mi- num|et vi- vi-|* fi- can-|tem, qui||ex Pa-|
 G2 G2 G4 | G4 D4 | E8 | z8 | z8 | G6 A2 | B4 c4- | c2 BA B4 | c4 z4 | z8 | c4 B4 | c2 BA c2 B2- | %264
w: * tre Fi-|li- o-|que|||Qui *|cum Pa-||tre||si- mul|a- do- * ra- *|
 BA A4 ^G2 | A4 z2 A2 | E2 E2 G2 G2 | D4 G4 | E4 E4 | E2 G3 F E2 | D2 C2 D4 | C4 z4 | C3 D E3 D | %273
w: |tur et|con- glo- ri- fi-|ca *|tur: qui|lo- cu- * *|* * tus|est|per * pro- *|
 C2 B,2 A,2 B,2- | B,2 A,4 E2- | E2 E2 C4 | G6 G2 | E4 A4- | A2 A2 G4 | c6 c2 | B4 A2 G2 | %281
w: phe- * * *|* tas. Et|* u- nam-|san- ctam,|ca- tho-|* li- cam|et a-|po- sto- li-|
 A2 G2 A2 B2- | B2 A4 ^G2 | A4 z4 | z8 | z8 | c4 B4 | A4 G4 | z2 c4 B2 | A4 E4 | F4 G4 | %291
w: cam Ec- cle- *|* * si-|am.|||Con- fi-|te- or|u- *|num bap-|tis- ma|
 z2 E4 F2- | F2 G4 A2- | A2 B2 c4 | z2 G3 F E2 | F3 E/D/ C3 A, | B,2 C4 B,2 | C4 G4- | G2 G2 A4 | %299
w: * re-|* mis- si-|* o- nem|pec- * *|ca- * * * *|to- * *|rum. Et|* ex- pec-|
 F4 G4 | E4 F4 | D3 E FG A2- | AG G4 ^F2 | G4 c4 | B2 G2 A4 | G4 z4 | G4 A4 | F2 G4 E2- | %308
w: * to|re- sur-|rec- * * * *|* * * ti-|o- *||nem|mor- *|tu- * o-|
 E2 D2 E2 F2- | F2 E4 D2 | E8- | E8 |][M:3/2][Q:1/2=100] z12 | A4- A4 G4 | A4 B4- B2 A2 | %315
w: ||rum,|||et * vi-|tam ven- * *|
 A4- A4 ^G4 | A4 A,4- A,2 B,2 | C2 D2 E4 A,4 | C6 D2 E2 F2 | G4 D4 E4- | E2 F2 G2 A2 B4 | %321
w: tu- * *|ri sae- * *|* * cu- li.|A- * * *|||
 A4 G4 F4 | E8 D4 | E4- E8- | E8- E4- | E4- !fermata!E8 |] %326
w: ||men. *|||
V:2
 e8 | e8 | e8 | f4 e4 | d8 | e4 d4- | d4 c4 | B8 | A8 | z8 | B6 c2 | d4 d4 | d4 c4 | B4 d4- | %14
w: Pa-|trem|o-|mni- po-|ten-||||tem||fa- *|cto- rem|cae- li|et ter-|
 d2 c4 BA | ^G2 A4 ^G2 | A4 e4- | e2 e2 e2 e2 | e8 | c4 e4 | d8 | c8 | c4 B4 | d4 c4 | e4 d4 | %25
w: ||rae, vi-|* si- bi- li-|um|o- *|mni-||um et|in- vi-|* si-|
 A3 B c2 d2 | e8 | c8 | e6 e2 | e4 e4 | f4 f4 | e4 e4- | e4 e4 | e4 A4 | d4 c4 | d8 | B4 e4- | %37
w: bi- * * *|li-|um.|Et in|u- num|Do- mi-|num Ie-|* sum-|Chri- stum|* Fi-|li-|um De-|
 e2 dc d4 | e6 f2 | g4 f4 | g8 | e8 | z2 c4 B2- | B2 A2 c4- | c2 A2 B4 | c6 BA | G4 A4- | %47
w: |i u-|ni- ge-|ni-|tum,|et ex|* * Pa-||tre * *|* na-|
 A2 ^G^F G3 A | B4 G4- | G2 A2 B2 c2 | B4 d4 | e8 | c8 | e8- | e8 | z8 | g8 | g6 f2 | e4 c4 | d8 | %60
w: |tum, an-|* te o- *|mni- *||a.-||||Sae-|cu *|||
 e4 c4 | B8 | A8 | z4 e4- | e2 f2 g4- | g4 g4 | e4 c4- | c2 d2 e4- | e4 f4 | g4 g4- | g4 ^f4 | %71
w: la. De-||um|de||* De-|o, Lu-|* * men||de Lu-|* mi-|
 g4 e4- | e2 d2 c4- | c2 BA B4 | c4 e4- | e2 f2 g4 | z4 e4- | e8 | c4 A4 | e4 f4 | g4 d4 | e8 | %82
w: ne, De-|||um ve-|* * rum|de||De- o|ve- *|||
 c4 A4- | A2 A2 A4 | A4 A4 | G6 A2 | B4 A4- | A4 d4- | d8 | B4 c4- | c2 BA G3 A | B2 c2 d4 | e8 | %93
w: ro, ge-|* ni- tum|non- fa-|ctum, *||||* con-||sub- * stan-|ti-|
 d4 c2 A2- | A2 ^G^F G4 | A4 c4- | c2 d2 e4- | e2 f2 g4- | g2 e2 f4 | g8 | e4 f3 e | d2 c2 c4- | %102
w: a- lem Pa-||tri; per|* * quem|* * o-||mni-|a * *|* * fa-|
 c2 BA B4 | c8 | B4 c4- | c2 B2 B4- | B4 A4 | B6 A2 | G4 A4- | A2 B2 c4 | B8 |] z8 | z8 | z8 | z8 | %115
w: |||* * cta|||||sunt.|||||
 z8 | z8 | z8 | z8 | z8 | z8 | z8 | z8 | z8 | z8 | z8 | z8 | z8 | z8 | z8 | z8 | z8 | z8 | z8 | %134
w: |||||||||||||||||||
 z8 | z8 | z8 | z8 | z8 | z8 |] e8 | e4 e4 | e4 d4 | e4 d4- | d4 c4 | B8 | A4 e4- | e4 e4 | f4 e4 | %149
w: ||||||Et|in- car-|na- *|||tus|est de|* Spi-|ri- tu|
 d8 | c8 | z8 | e4 e4 | f4 e4- | e4 d4 | e3 d e2 f2- | fe e4 d2 | e4 e4 | e4 c4 | d4 c4 | A4 d4- | %161
w: San-|cto||ex Ma-|ri- a||Vir- * * *|* * * gi-|ne, et|ho- *||mo fac-|
 d4 d4 | B4 e4- | e2 dc d4 | e8 |][M:4/4] e4 e4 | c4 d4 | e8 | e4 e4 | f4 e4 | g8 | e8 | e4 e4- | %173
w: * ctus|||est.|Cru- ci-|fi- *|xus|e- ti-|am pro|no-|bis|sub Pon-|
 e4 d4 | e8- | e8 | d8 | z2 d3 cBA | G6 A2 | B4 G4 | A4 c4 | d4 B4 | c2 A3 B c2- | cd e2 A2 c2- | %184
w: * ti-|o|||Pi- * * *||* la-|||to, pas- * *|* * * sus, et|
 cd e4 d2- | d2 c2 B4 | A2 c4 BA | G4 G4 | c4 g4- | g4 g4 | e4 f4 | e8 | e4 f2 g2- | g2 d2 e4- | %194
w: * * * se-||pul- * * *|* tus|est, et|* re-|sur- *|re-|xit ter- *|* ti- a|
 e2 c3 d e2 | c2 A2 e4 | e3 d B2 c2 | d4 c2 d2- | dc c2 A4 | A8 | A6 B2 | c4 d4 | e4 f4 | %203
w: * di- * *|* * e,|se- * * *|cun- dum Scrip-|* * * tu-|ras,|et *|a- *|scen- *|
 e2 g3 f e2- | e2 dc B2 d2- | dcBA B4 | A8 | z4 d4 | B4 G2 c2- | c2 B2 A4 | G3 A Bc d2- | %211
w: dit in * *|* * * * cae-||lum,|se-|det ad dex-||te- * * * *|
 d2 c4 B2 | c4 e4 | d4 e2 f2- | fe e4 d2 | e8 | z8 | z8 | z8 | z8 | z8 | z8 | z8 | z8 | z8 | z8 | %226
w: |ram *|Pa- * *||tris.|||||||||||
 z8 | z8 | z8 | z8 | z4 c4 | c4 A4 | F3 G A2 B2 | c8 | e4 e4 | f4 d4 | e4 e4 | A8 | z2 A3 Bcd | %239
w: ||||vi-|vos et|mor- * tu *|os:|cu- ius|re- *||gni|non * * *|
 e4 e2 c2- | cB B4 A2 | B4 B4 | B2 B4 B2 | d4 d4 | e8 | z2 c4 BA | G2 A2 B4 | e4 e2 e2- | %248
w: e- rit fi-||nis. Et|in Spi- ri-|tum San-|ctum,|Do- * *|* mi- num|et vi- vi-|
 e2 e2 e4 | e6 d2- | dc c4 B2 | c4 e4- | e2 e2 e4 | d4 g4- | g2 g2 g4 | e4 f2 e2 | d2 c4 B2 | c8 | %258
w: * fi- can-|tem, *||* qui|* ex Pa-|tre Fi-|* li- o-|que pro *|ce * *|dit.|
 z2 g3 e f2 | g4 g4 | e4 z4 | z8 | e4 d4 | c4 e4 | d2 c2 B4 | A4 e4 | c2 c2 c2 c2 | B4 d4 | %268
w: Qui- * *|cum Pa-|tre||si- mul|a- do-|ra- * *|tur et|con- glo- ri- fi-|ca- tur:|
 z2 g4 g2 | g2 e3 f g2- | g2 ^f2 g4 | e4 e4 | e2 c3 d e2- | e2 d2 e4 | c4 z4 | z2 g4 g2 | %276
w: qui lo-|cu- * * *|* * tus|est per|pro- phe- * *||tas.|Et u-|
 e3 d/c/ B4 | c4 e4- | e2 e2 e4 | c3 d e2 f2 | g4 e2 e2 | e2 e2 c2 e2- | ec d2 e4 | c4 B4 | A4 G4 | %285
w: nam * * *|san- ctam,-|* ca- tho-|li- * cam et|a- po- sto-|li- cam Ec- cle-|* * si- am.|Con- fi-|te- or|
 z4 d4 | c4 d4 | c2 A2 e4 | c3 d e4 | z2 A2 c3 B | A2 d2 B4 | c6 A2 | d2 B2 e2 c2 | f2 d2 c2 f2 | %294
w: u-|num bap-|tis- * *|* * ma|in re- *|mis- * si-|on- *|||
 d4 G4 | A2 F2 E2 g2- | g2 f2 g4 | e6 e2 | e4 c4 | d4 B4 | c4 A4 | B3 c d2 c2 | A2 d6 | B2 e4 f2 | %304
w: em pec-|ca- * to- *|* * rum.|Et ex-|pec- *||to re-|sur- * * *|rec- *|ti- * *|
 d2 g4 ^f2 | g2 e2 d4 | B2 G2 z2 c2 | d2 B4 c2- | cB A2 c4- | c2 B2 A4 | B8 | c8 |] %312
w: o- * *|nem * *|* * mor-|* * tu-|* * * o-|||rum|
[M:3/2] B6 c2 d4 | e4- e4 e4 | f4 g4- g2 f2 | d4 e8 | e6 d2 c2 B2 | A4- A2 B2 c2 d2 | e4 A4 c4- | %319
w: et * *|vi- * tam|ven- tu- * *|* ri|sae- * * *|cu- * * * *|li. A- *|
 c2 d2 e2 f2 g4 | g8- g4 | e4 f4 d4 | e4 c4 d4 | e4 A6 B2 | c8 c4 | B4- !fermata!B8 |] %326
w: ||||||men. *|
V:3
 z8 | z8 | z8 | z8 | z8 | z8 | z8 | z8 | z8 | z8 | z8 | z8 | z8 | z8 | z8 | z8 | c6 c2 | c4 c4 | %18
w: ||||||||||||||||vi- si-|bi- li-|
 c4 B4 | A4 c4 | A8- | A8 | G4 G4 | A8 | B4 B4 | c4 A4 | B8 | A8 | c6 c2 | c4 c4 | A4 c4- | c4 c4 | %32
w: um *|o *|mni-||um et|in-|vi- si-|bi- *|li-|um.|Et in|u- num|Do- mi-|* num|
 z4 c4- | c4 c4 | B4 G4 | A8 | G4 c4- | c4 B4 | c4 e4 | d4 c4 | d8 | c6 B2 | A4 G4 | F4 E4 | G8 | %45
w: Ie-|* sum||Chri-|stum, Fi-||li- *|um De-|i|u- *|ni- *|ge- *|ni-|
 A8 | z8 | z8 | G4 B4- | B2 c2 d2 e2 | d4 B4 | c6 B2 | A4 G4- | G2 A2 B2 c2 | B4 c4 | d8 | c8 | %57
w: tum,|||et ex||Pa- tre|na- *|tum, an-||te *||o|
 c8 | c4 e4 | d4 B4 | c4 A4- | A2 ^G^F G4 | A4 c4- | c4 c4 | G4 c4- | c2 BA B4 | c8 | z8 | c6 c2 | %69
w: mni-|a- *|sae- *|* cu-||la. De-|* um|de De-||o,||Lu- men|
 d4 d4- | d4 d4 | B4 c4- | c2 B2 G4- | G2 E2 F4 | G8 | z4 c4- | c2 B2 A4- | A4 ^G4 | A4 c4- | %79
w: de Lu-|* mi-||||ne,|De-|* * um|* ve-|rum de|
 c2 B2 c4 | d4 A4 | B4 B4 | A4 c4- | c2 c2 c4 | c4 c4 | B8- | B4 c4- | c4 B4 | A8 | G8 | %90
w: |De- *|o ve-|ro, ge-|* ni- tum|non fa-|ctum,|* con-||sub-|stan-|
 c2 c2 B4- | B4 B4 | c8 | A8 | z4 D4 | E4 A4 | G4 c4 | B4 e4 | d4 c4 | d8 | c6 B2 | A4 G4- | %102
w: ti- a- lem|* Pa-||tri:|per|quem *|o- *||mni- *|a|fa- *||
 G2 E2 F4 | G8 | z8 | z8 | z8 | G6 A2 | B4 c4- | c2 B2 A4 | ^G8 |] z8 | c6 B2 | c4 d4 | e8 | %115
w: * * cta|sunt.||||fa- *|* cta||sunt||Qui *|prop- ter|nos|
 f3 e d2 e2- | ed c4 B2 | c8 | G4 c4 | B4 z2 G2 | G4 G2 c2- | c2 BA B4 | A2 GF E2 e2- | %123
w: ho- * * *|* * * mi-|nes||* et|prop- ter no-||stram * * * sa-|
 e2 d2 e2 A2- | AGFE F4 | E4 z2 G2- | GA B3 c d2- | dcBA G2 d2- | d2 c4 B2 | c4 z2 G2 | %130
w: * * lu- *||tem de-|* * scen- * *|||dit de-|
 A3 B c2 d2- | dc c4 B2 | c2 A2 B2 G2 | A4 G2 d2- | d2 c2 e2 d2- | d2 c4 B2 | c4 z2 c2- | %137
w: scen- * * *||||||dit de|
 c2 BA G2 B2- | BA A4 ^G2 | A8 |] c8 | c4 c4 | B4 A4 | c4 B4 | B2 A2 A4- | A2 ^G^F G4 | A8 | %147
w: * * * * cae-||lis.|Et|in- car-|na- *||tus * *||est|
 z4 G4 | A4 c4- | c2 BA B4 | c3 B G2 A2- | AGFE F4 | E8 | z4 c4 | B4 A4 | G3 A B2 c2- | cB B4 A2 | %157
w: de|Spi- ri-||tu * San- *||cto|ex|Ma- ri-|a * * Vir-|* * * gi-|
 B4 c4 | c4 G4 | A6 B2 | c4 B4 | A8 | G4 c4- | c2 BA B4 | c8 |][M:4/4] c4 c4 | A8 | B8 | c4 c4 | %169
w: ne, et|ho- *|mo *||fac-|tus *||est.|Cru- ci-|fi-|xus|e- ti-|
 c4 c4 | d8 | c8 | G6 A2 | B4 B4 | c4 c4 | c8 | B8 | A4 A4 | B4 c4 | d8 | c4 z4 | z8 | z8 | z8 | %184
w: am pro|no-|bis|sub *|* Pon-|* ti-|o||Pi- la-|||to,||||
 z8 | z8 | e8 | e4 e4 | e8 | d8 | z4 c4 | c4 B4 | c2 B2 c2 d2- | d2 A2 B4 | A4 z4 | c4 c4 | B4 G4 | %197
w: ||et|re- sur-|re-|xit|ter-|ti- a|di- * * *||e,|se- cun-|dum Scrip-|
 A4 G2 A2- | A2 E2 F4 | E8 | z8 | z8 | z8 | z8 | z8 | z8 | z8 | z8 | z8 | z8 | z8 | z8 | z8 | z8 | %214
w: tu- * *||ras,|||||||||||||||
 z8 | z8 | z8 | G8 | A4 A4 | G4 c4 | B4 c2 d2- | dc c4 B2 | c8 | z6 G2 | A4 B4 | c4 z2 G2- | %226
w: |||Et|i- te-|rum ven-|tu- * *|* * * rus|est|cum|glo- ri-|a, iu-|
 G2 A2 B2 c2- | cB A4 ^G2 | A3 B c2 d2- | d2 c2 B4 | A4 A4 | A4 F4 | A4 F4 | G8 | c4 c4 | c4 B4 | %236
w: * * di- ca-||re * vi- *||vos et|mor- *|tu- *|os,|cu- ius|re- *|
 c8 | c4 c4 | c8 | c3 B G2 A2- | A2 E2 F4 | E4 E4 | G4 G3 A | B4 G4 | z2 A4 E2 | A2 G2 A2 B2- | %246
w: gni|non e-|rit|fi- * * *||nis. Et|in Spi- *|ri- tum|San- *|ctum, * Do- *|
 BA A4 ^G2 | A4 A2 A2- | A2 c2 c4 | B6 A2- | A2 G4 F2 | G4 c4- | c2 c2 c4 | B4 B4 | c8 | z8 | z8 | %257
w: * * * mi-|num et vi-|* vi- fi-|can- tem,|* qui *|ex Pa-|* tre Fi-|li- o-|que|||
 e4 e4 | d4 c4 | d8 | c2 BA c2 B2- | BA A4 ^G2 | A4 z4 | z8 | z8 | c6 BA | G2 G2 G2 G2- | %267
w: Qui cum|Pa- *|tre|et * * * Fi|* * * li-|o|||et- * *|* con- glo- ri-|
 G2 A2 B4 | c4 z2 c2- | c2 BA G3 A | B2 c4 B2 | c4 z2 A2- | A2 GF E3 F | G2 A4 ^G2 | A4 c4- | %275
w: * fi- ca-|tur: qui||lo- cu- tus|est per||pro- phe- *|tas. Et|
 c2 c2 e3 d | c2 BA G4 | A4 c4- | c2 c2 B4 | e3 d c2 c2 | d4 c2 B2 | c2 B2 A2 G2 | A4 B4 | A4 z4 | %284
w: * u- nam *|san- * * *|ctam, ca-|* tho- li-|cam * et a-|po- sto- li-|cam * Ec- *|cle- si-|am.|
 z8 | c4 B4 | A4 G4 | z2 c4 B2 | A4 E4 | F4 G4 | z4 G4- | G4 A4 | B4 c4 | d4 A4 | B4 c4 | d4 e4 | %296
w: |Con- fi-|te- or|u- *|num bap-|tis- ma|in|* re-|mis- si-|on- em|pec- *|ca- *|
 d2 c2 d4 | c6 c2 | c4 A4 | A4 G4 | G4 F4 | G2 G2 A3 B | c2 B2 A4 | A2 c3 B c2 | d4 d4 | B2 c2 A4 | %306
w: to- * rum.|Et ex-|pec- to|re- *|sur- *|rec- ti- o- *|nem * mor-|tu- o- * *|rum, mor-|tu- * *|
 G2 c4 A2- | A2 G4 A2- | AG F2 E2 A2- | A2 E2 F4 | E3 F G4 | A8 |][M:3/2] G6 A2 B4 | c4- c4 B4 | %314
w: * o *|||||rum|et * *|vi- * *|
 c4 d4- d2 c2 | A4 B8 | c6 B2 A4- | A2 B2 c2 d2 e4 | A4 c4- c2 d2 | e2 f2 g4 c4 | B4 e4 d4 | %321
w: tam ven- * *|tu- ri|sae- * *|* * * * cu-|li. A- * *|||
 c4- c4 B4 | c4 A4- A2 G2 | E4 F8 | E4 A4- A4 | ^G4- !fermata!G8 |] %326
w: ||||men. *|
V:4
 E,6 F,2 | G,4 C,4 | z4 G,4 | A,4 C4- | C2 B,A, B,4 | C4 B,4- | B,2 G,2 A,4- | A,4 ^G,4 | A,4 z4 | %9
w: Pa- *|* trem|o-|mni- po-||ten- *|||tem,|
 E,6 F,2 | G,4 G,4- | G,4 G,4 | F,4 E,4- | E,2 G,4 F,2- | F,2 E,4 D,C, | B,,2 A,,2 B,,4 | %16
w: fa- *|cto- rem|* cae-|* li|* et ter-|||
 A,,4 A,,4- | A,,2 A,,2 A,,2 A,,2 | C,4 E,4 | F,4 C,4 | D,8 | A,,8 | C,4 E,4 | D,4 F,4 | E,4 G,4 | %25
w: rae, vi-|* si- bi- li-|um *|o- *|mni-|um|et *|in- *|vi- si-|
 F,8 | E,8 | A,,8 | A,,4 A,4- | A,2 A,2 A,4 | F,8 | C,6 C,2 | C,4 C,2 D,2 | E,4 F,4 | G,4 E,4 | %35
w: bi-|li-|um.|Et *|* in u-|num|Do- mi-|num Ie- *||sum *|
 D,8 | E,4 C,4 | D,8 | C,8 | G,4 A,4 | G,8 | A,6 G,2 | F,4 E,4 | D,4 C,4 | B,,8 | A,,6 B,,2 | %46
w: Chri-|||stum,|Fi- li-|um|De- *|i *|u- *|ni-|ge- *|
 C,4 A,,4 | E,8- | E,8- | E,8 | G,8 | C,8- | C,8- | C,8 | E,4 C,4 | G,8 | C,8- | C,8 | C,4 A,,4 | %59
w: * ni-|tum,|||et|ex|||Pa- tre|na-|tum,||an- te|
 B,,8 | A,,8 | E,8 | A,,8 | A,,3 B,, C,3 D, | E,4 C,4 | G,8 | C,6 D,2 | E,8 | A,8 | G,8 | D,8 | %71
w: o-|mni-||a|sae- * cu- *|la. De-|um|de *|De||o,|Lu-|
 E,4 C,4- | C,2 D,2 E,4 | D,8 | C,8- | C,8 | A,,8 | E,8 | F,8 | E,4 A,4 | G,4 F,4 | E,8 | %82
w: men de|* * Lu-|mi-|ne,||De-|||um de-|De- o|ve-|
 A,,4 A,,4- | A,,2 A,,2 A,,4 | A,,4 A,,4 | E,6 F,2 | G,4 F,4- | F,4 G,4 | D,8 | E,4 C,4- | %90
w: ro ge-|* ni- tum|non fa-|ctum, *|* con-||sub-|stan- ti-|
 C,2 D,2 E,4- | E,2 D,C, B,,4 | A,,4 C,4 | D,4 A,,4 | B,,8 | A,,6 B,,2 | C,6 D,2 | E,6 F,2 | %98
w: * * a-||lem *|Pa- *|tri;|per *|||
 G,4 A,4 | G,8 | A,4 F,4- | F,2 E,2 C,4 | D,8 | C,3 D, E,2 F,2 | G,4 A,4- | A,2 G,2 E,4 | F,8 | %107
w: |quem|o- *|* * mni-|a|fa- * * *||||
 E,8 | E,4 A,,4- | A,,4 A,,4 | E,8 |] z8 | z8 | z8 | z8 | z8 | z8 | z8 | z8 | z8 | z8 | z8 | z8 | %123
w: ||* cta|sunt.|||||||||||||
 z8 | z8 | z8 | G,4 G,4 | F,4 E,2 F,2- | F,E,D,C, D,4 | C,3 D, E,4 | D,4 C,2 B,,2 | C,4 G,4 | %132
w: |||de- scen-|dit de cae-||||lis. De-|
 A,2 F,2 D,2 G,2- | G,2 F,2 G,4 | F,4 E,2 F,2- | F,E,D,C, D,4 | C,4 A,,2 A,2- | A,2 G,F, E,4- | %138
w: scen- * * *||||dit de cae-||
 E,2 A,,2 E,4 | A,,8 |] A,8 | A,4 A,4 | G,4 F,4 | E,4 G,4- | G,4 A,4 | E,8 | A,,6 B,,2 | %147
w: |lis.|Et|in- car-|na *|* tus-||est|de *|
 C,3 D, E,4 | D,4 C,4 | G,8 | C,3 D, E,2 F,2- | F,E, E,4 D,2 | E,4 G,4 | A,8 | G,4 F,4 | %155
w: Spi- * *|ri- *|tu|San- * * *||cto ex|Ma-|ri- a|
 E,3 F, G,2 A,2- | A,G,F,E, F,4 | E,4 C,4 | C,4 E,4 | D,4 F,4 | F,4 G,4 | D,8 | E,4 C,4 | G,8 | %164
w: Vir- * * gi-||ne, et|ho- *||mo *|fac-||tus|
 C,8 |][M:4/4] C,4 C,4 | F,8 | E,8 | C,4 C,4 | F,4 A,4 | G,8 | C,8 | E,4 E,4- | E,2 D,C, B,,4 | %174
w: est.|Cru- ci|fi-|xus|e- ti-|am pro|no-|bis|sub Pon-||
 A,,4 A,4- | A,4 E,4 | G,8 | F,8 | E,4 E,4 | D,3 C, B,,4 | A,,4 E,2 F,2- | F,2 E,D, E,4 | A,,8 | %183
w: * ti-||o||Pi- la-||to, pas- *||sus|
 A,,4 A,,4 | C,3 D, E,F, G,2- | G,2 A,2 E,4 | A,,8 | C,4 C,4 | C,8 | G,8 | A,4 F,4 | A,4 E,4 | %192
w: et se-|pul- * * * *|* * tus|est,|et- re-|sur-|re-||* xit|
 A,2 E,2 A,2 G,2- | G,2 F,2 E,4 | A,,8 | A,,4 A,,4 | E,4 E,4 | D,4 E,2 D,2 | F,2 C,2 D,4 | A,,8 | %200
w: ter- * ti- a-|* * di-|e,|se- cun-|dum Scrip-|tu- * *||ras,|
 z8 | A,,6 B,,2 | C,4 D,4 | E,3 F, G,4 | A,4 G,2 B,2- | B,A, A,4 ^G,2 | A,4 z2 A,2 | F,4 D,2 G,2- | %208
w: |et *|a- *|scen- * dit|in * cae-||lum, se||
 G,2 E,4 C,2 | z2 G,4 F,2 | G,2 E,4 F,2- | F,2 E,2 D,4 | z2 C,3 D,E,F, | G,2 F,2 G,2 A,2- | %214
w: * * det|ad *|dex- * te-|* * ram|Pa- * * *||
 A,2 E,2 F,4 | E,8 | z8 | z8 | z8 | z8 | z8 | z8 | z8 | z8 | z8 | z8 | z8 | E,4 E,4 | %228
w: |tris.||||||||||||iu- di-|
 F,3 G, A,2 G,2- | G,2 A,2 E,4 | A,,4 A,,4 | A,,4 D,4 | D,4 D,4 | C,8 | C,8 | F,4 G,4 | C,8 | %237
w: ca- * * *||re vi-|vos et|mor- tu-|os,|cu||ius|
 F,4 F,4 | E,2 F,4 E,D, | C,3 D, E,2 F,2- | F,2 G,2 D,4 | G,4 E,2 G,2- | G,F, E,4 D,C, | %243
w: re- gni|non e- * *|* * rit *|* * fi-|nis. Et in|* * Spi- * *|
 B,,3 A,, B,,4 | A,,4 A,,4 | A,,2 E,2 A,,2 E,2- | E,2 A,,2 E,4 | A,,4 A,,2 A,,2- | %248
w: * * ri-|tum San-|ctum, Do- mi- num|* et vi-|vi- fi- can-|
 A,,2 A,,2 C,3 D, | E,6 F,2- | F,2 E,2 D,4 | C,4 C,2 C,2- | C,2 C,2 E,3 F, | G,4 G,4 | C,8 | %255
w: * tem, qui *|||ex Pa- tre|* Fi- * *|li- o-|que|
 G,4 A,3 G, | F,2 E,2 D,4 | C,8 | G,4 A,4 | G,8 | C,4 E,4 | D,2 C,2 B,,4 | A,,4 z4 | z8 | z8 | %265
w: pro- ce- *||dit.|Qui- cum|Pa-|tre et|Fi- * li-|o|||
 A,,4 A,,4 | C,3 D, E,3 F, | G,4 G,4 | C,4 C,4 | C,3 D, E,3 F, | G,2 A,2 G,4 | C,4 A,,4 | %272
w: et- con-|glo- * ri- *|fi- ca-|tur: qui|lo- * cu- *|* * tus|est per|
 A,,3 B,, C,2 D,2 | E,2 F,2 E,4 | A,,6 A,,2 | C,6 C,2 | C,4 E,4 | A,,6 A,,2 | C,3 D, E,4 | %279
w: pro- * * *|phe- * *|tas. Et|u- nam,|san- *|ctam, ca-|tho- li- cam|
 A,,4 A,2 A,2 | G,4 A,2 E,2 | A,2 E,2 F,2 E,2 | F,4 E,4 | A,,4 z4 | C4 B,4 | A,4 G,4 | z4 z4 | %287
w: et a- po-|sto- li- cam|Ec- * cle- *|* si-|am|Con- fi-|te- or||
 F,4 E,4 | F,4 G,4 | D,4 C,4 | D,4 E,4 | C,4- C,2 D,2- | D,2 E,2- E,2 F,2- | F,2 G,2 A,2 F,2 | %294
w: u num|bap- *|tis- *||ma * in|* re- * mis-|* * si- *|
 G,3 F, E,4 | D,4 z2 C,2 | G,2 A,2 G,4 | C,4- C,2 C,2 | C,4 F,4 | D,4 E,4 | C,4 D,4 | z4 D,2 F,2- | %302
w: on- * *|em pec-|ca- * to-|rum. * Et|ex- *|spe- *|* cto|re- sur-|
 F,2 G,2 D,4 | E,4 A,4 | G,4 D,4 | E,2 C,2 D,4 | E,4 F,4 | D,2 E,2- E,2 C,2 | A,,2 D,2 C,2 F,2- | %309
w: * * re-|cti- *|o- *|* * nem|mor- *|tu- * * *|o- * * *|
 F,2 G,2 D,4 | G,3 F, E,3 D, | C,4 A,,4 |][M:3/2] E,6 D,C, B,,4 | A,,4- A,,4 E,4 | A,4 G,4- G,4 | %315
w: ||rum, *|et * * *|vi- * tam|ven- tu- *|
 F,4 E,8 | A,6 B,2 C2 D2 | E4 A,4 z4 | A,,8 A,,4 | C,4- C,4 C,4 | E,6 F,2 G,4 | A,4 F,4 G,4 | %322
w: * ri|sae- * * *|cu- li.|A- *||||
 C,4 F,4 D,4 | C,4 D,8 | A,,6 B,,2 C,2 D,2 | E,4- !fermata!E,8 |] %326
w: |||men. *|

